X:1
T:The Banks of the Don
M:3/4
L:1/4
K:F
 F/2F/2| C F F| F G A| G F3/2 F/2| F2 F| F A c| c A c/2c/2| d c A|\
 G2 c/2c/2| c c3/2 c/2| c c3/2 c/2| d c A| G2F/2-G/2| A G A| F D C|\
 D F3/2 F/2| F2||
